X:1
T:A LA ROQUETTE
T:Aristide Bruant                                                                   Harmonisation Christian Rondepiere
%%score 1 2 3 4
L:1/8
Q:1/4=100
M:6/8
K:D
V:1 treble nm="Soprano" snm="S."
V:2 treble nm="Alto" snm="A."
V:3 treble-8 nm="Ténor" snm="T."
V:4 bass nm="Bass" snm="B."
V:1
 BBc | d2 e d2 c | .B2 z ddc | e6 | .d2 z BBc | d2 e d2 c | B2 z ddc | e6 | .d2 z (f3 | e6 | f6 | %11
w: 1.En t'é- cri-|vant ces mots j'fré-|mis par tout mon|ê-|tre, Quand tu les|li- ras, j'au- rais|mis l'nez à la|f'nê-|tre. Oh|_||
w: 2.L'Pré- si- dent|n'au- ra pas vou-|lu si- gner ma|grâ-|ce, Sans doute que|ça y'au- ra dé-|plu que j'me la|cas-|se. *|||
w: 3.Là haut l'so-|leil blan- chit les|cieux, la nuit s'a-|chè-|ve, Ils vont ar-|ri- ver, ces mes-|sieurs, v'là l'jour qui|s'lè-|ve. *|||
w: 4.Tout ça, vois-|tu, ça n'me fait|rien, c'qui pa- ra-|ly-|se, C'est qu'il faut|qu'on coupe a- vant|l'mien, l'col de ma|ch'mi-|se. *|||
w: 5.(Tacet) * *||||||||(5)tacet *|||
w: 5(Solo)Aus- si, j'vas|m'rai- dir pour mar-|cher, sans qu'ça m'é-|meu-|5(solo)ve, c'est pas moi|que j'vou- drais flan-|cher de- vant la|veu-|ve. *|||
 d6 | .c2) z FFF | f2 f f2 f | .f2 z ddf | f6 | .d2 z :| %17
w: |* (1)J'en- tends comme|une es- pèce de|bruit à la Ro-|quet-|te.|
w: |* (2)D'temps en temps|faut qu'on coupe un|cou * * *|||
w: |* (3)Qui chante sur|l'air de "l'En- terr'-|ment" * * *|||
w: |* (4)J'ai peur d'a-|voir froid dans les|os * * *|||
w: |* (5)A- vant d'é-|ter- nu- er dans|l'sac à la Ro-|quet-|te!|
w: ||||||
V:2
 z2 z | F3 F2 E | D6 | C6 | .D2 z z3 | F3 F2 E | D6 | C6 | .D2 z FFF | G2 F E2 G | F2 E D2 E | %11
w: |1.ces mots j'fré-|mis|ê-|tre,|Quand j'au- rais|la|f'nê-|tre. (1)J'suis ré- veil-|lé de- puis mi-|nuit, ma pauv' Toi-|
w: |2.ra pas vou-|lu|grâ-|ce,|Que je me|la|cas-|se. (2)Si l'on gra-|ciait à cha- que|coup, ça s'rait trop|
w: |3.blan- chit les|cieux,|chè-|ve,|Et ces mes-|sieurs|s'lè-|ve. (3)Maint'- nant j'en-|tends dis- tinc- te-|ment l'peuple en go-|
w: |4.ça n'me fait|rien,|ly-|se,|A- vant le|mien,|ch'mi-|se. (4)En pen- sant|au froid des ci-|seaux, à la toi-|
w: |5.(tacet) * *|||||||* (5)tacet * *|||
w: ||||||||* 5(solo)J'veux pas qu'on|dise que j'ai eu|l'trac de la lu-|
 (F3- F2 ^E) | .F2 z ddd | B2 c B2 c | .d2 z B^AA | (B3 ^A3) | .B2 z :| %17
w: net _ _|te, (1)J'en- tends comme|une es- pèce de|bruit à la Ro-|quet _|te.|
w: chouet _ _|te, (2)D'temps en temps|faut qu'on coupe un|cou * * *|||
w: guet _ _|te, (3)Qui chante sur|l'air de "l'En- terr'-|ment" * * *|||
w: let _ _|te, (4)J'ai peur d'a-|voir froid dans les|os * * *|||
w: |* (5)A- vant d'é-|ter- nu- er dans|l'sac à la Ro-|quet _|te!|
w: net _ _|_|||||
V:3
 z2 z | z2 ^A B2 F | F6 | ^A6 | .B2 z z3 | z2 ^A B2 F | F6 | ^A6 | .B2 z _B=BA | B2 B B2 B | %10
w: |1.ces mots j'fré-|mis|ê-|tre,|Quand j'au- rais|la|f'nê-|tre. (1)J'suis ré- veil-|lé de- puis mi-|
w: |2.ra pas vou-|lu|grâ-|ce,|Que je me|la|cas-|se. (2)Si l'on gra-|ciait à cha- que|
w: |3.blan- chit les|cieux,|chè-|ve,|Et ces mes-|sieurs|s'lè-|ve. (3)Maint'- nant j'en-|tends dis- tinc- te-|
w: |4.ça n'me fait|rien,|ly-|se,|A- vant le|mien,|ch'mi-|se. (4)En pen- sant|au froid des ci-|
w: ||||||||* (5)tacet * *||
 B3 B3 | ^A6 | .^A2 z BBB | d2 e d2 e | .f2 z gfe | (d3 c3) | .B2 z :| %17
w: nuit, Toi-|net-|te, (1)J'en- tends comme|une es- pèce de|bruit à la Ro-|quet _|te.|
w: coup, trop|chouet-|te, (2)D'temps en temps|faut qu'on coupe un|cou * * *|||
w: ment go-|guet-|te, (3)Qui chante sur|l'air de "l'En- terr'-|ment" * * *|||
w: seaux, toi-|let-|te, (4)J'ai peur d'a-|voir froid dans les|os * * *|||
w: ||5(solo)te, (5)A- vant d'é-|ter- nu- er dans|l'sac à la Ro-|quet _|te!|
V:4
 B,,B,,^A,, | B,,6- | B,,2 z B,,D,E, | (F,3- F,2 ^E,) | .F,2 z B,,B,,^A,, | B,,6- | %6
w: 1.En t'é- cri-|vant|* par tout mon|ê _ _|tre, Quand tu l-|ras|
w: 2.L'Pré- si- dent|n'au-|* si- gner ma|grâ _ _|ce, Sans doute que|ça|
w: 3.Là haut l'so-|leil|* la nuit s'a-|chè _ _|ve, Ils vont ve-|nir|
w: 4.Tout ça, vois-|tu,|* c'qui pa- ra-|ly _ _|se, C'est qu'il faut|coup'|
w: 5.(Tacet) * *||||||
 B,,2 z B,,D,E, | (F,3- F,2 ^E,) | .F,2 z D,3 | E,3 G,3 | D,3 B,,3 | F,6 | .F,2 z B,B,B, | %13
w: _ l'nez à la|f'nê _ _|tre. (1)J'suis|ré- veil-|lé Toi-|net-|te, (1)J'en- tends comme|
w: _ que j'me la|cas _ _|se. (2)Si|l'on gra-|ciait trop|chouet-|te, (2)D'temps en temps|
w: _ v'la l'jour qui|s'lè _ _|ve. (3)J'en-|tends l'peuple|en go-|guet-|te, (3)Qui chante sur|
w: _ l'col de ma|ch'mi _ _|se. (4)Pen-|sant à|la toi-|let-|te, (4)J'ai peur d'a-|
w: ||* (5)tacet||||* (5)A- vant d'é-|
 B,2 B, B,2 B, | .B,2 z B,F,F, | F,6 | .B,,2 z :| %17
w: une es- pèce de|bruit à la Ro-|quet-|te.|
w: faut qu'on coupe un|cou * * *|||
w: l'air de "l'En- terr'-|ment" * * *|||
w: voir froid dans les|os * * *|||
w: ter- nu- er dans|l'sac à la Ro-|quet-|te!|

